X:120
T:Jolly fellows that follow - Mortimore
%%VWML:SBG-1-2-94-0
F:http://www.vwml.org/record/SBG/1/2/94
Z:Original Sibelius transcriptions by M. & S. Graebe
M:3/4
I:linebreak $
K:D
V:1 treble nm="P1"
V:1
 A | A F A | d d c | B A G | F2 F/>E/ | D E F | B A A | E F ^G | A3 A/ G/ |$ F G A | B G F | %11
 E F G | F2 F/ F/ | F F F | A G E | E D D | D2"^chorus" A |$ F G A | B G F | E F G | A2 F/ E/ | %21
 D E F | G E C | A, B, C | D3 | %25
T:Jolly fellows that follow - Olver
F:http://www.vwml.org/record/SBG/1/2/94
Z:Original Sibelius transcriptions by M. & S. Graebe
M:3/4
I:linebreak $
K:C
V:1 treble nm="P1"
V:1
 G/ G/ | G c c | c B c | A B c | d2 e | f f f | e g g | G A B |$ c3 e | f f f | a f e | d e f | %12
 g2 f | e e e | f d A | G A B |$ c2"^chorus" e | f f g | a f e | d e f | g2 g/ g/ | e c c | f d B | %23
 G A B | c2 x | %25
T:Jolly fellows that follow - Hard
F:http://www.vwml.org/record/SBG/1/2/94
Z:Original Sibelius transcriptions by M. & S. Graebe
M:6/8
I:linebreak $
K:C
V:1 treble nm="P1"
V:1
 G | Gc d ec B | AB c d2 d | ge c d c d | e a f g3 :|$ ef ga fe | de f g2 g | c d e f d B | %8
 G A B c3 | %9
T:Jolly fellows that follow - Fone
F:http://www.vwml.org/record/SBG/1/2/94
Z:Original Sibelius transcriptions by M. & S. Graebe
M:3/4
I:linebreak $
K:F
V:1 treble nm="P1"
V:1
 C | F F G | (F/E/) C C/ C/ | F A B | c2 A | c B G | B A F/ F/ | G B A | G2 C/ C/ |$ F F F/G/ | %10
 F/E/ C C/ C/ | F A B | c2 A/ A/ | c B G | B A F | G B E | F2 x | %17

